X: 2063
T: A Scotch Tune
T: Be constant ay
N: 2nd title handwritten above the tune.
%R: minuet, waltz
B: Henry Playford "Apollo's Banquet", London 1687 (5th Edition)
F: https://archive.org/details/apollosbanquetco01rugg
Z: 2017 John Chambers <jc:trillian.mit.edu>
M: 3/2
L: 1/4
K: Dm
% - - - - - - - - - -
|:\
B2 D2 E2 | G3 A G2 |\
(Bd) (ed) B2 | (AB) AG E2 |\
B2 D2 E2 | G3 A Bd |\
(ed) (BG) AA | G3 A G2 :|
|:\
B>c d2 (ef) | d3 e d2 |\
e>f g2 f2 | e4 d2 |\
B>c d2 (ef) | d3 e d2 |\
e>f g2 f2 | e4 d2 |
e>f gf e2 | (de) (ge) d2 |\
B>e ed B2 | (AB) (AG) E2 |\
(ge) (ge) (dB) | (AG) (Bd) (eg) |\
d>e (dB) (AG) | G3 A G2 |]
% - - - - - - - - - -

%%sep 1 1 500
%%sep 1 1 500

